Skins/royal-surge.surge-skin/assets/fxpresetarrows.svg

<?xml version="1.0" encoding="UTF-8" standalone="no"?>
<svg
   xmlns:dc="http://purl.org/dc/elements/1.1/"
   xmlns:cc="http://creativecommons.org/ns#"
   xmlns:rdf="http://www.w3.org/1999/02/22-rdf-syntax-ns#"
   xmlns:svg="http://www.w3.org/2000/svg"
   xmlns="http://www.w3.org/2000/svg"
   xmlns:xlink="http://www.w3.org/1999/xlink"
   xmlns:sodipodi="http://sodipodi.sourceforge.net/DTD/sodipodi-0.dtd"
   xmlns:inkscape="http://www.inkscape.org/namespaces/inkscape"
   width="34px"
   height="22px"
   viewbox="0 0 34 22"
   version="1.1"
   id="svg8220"
   sodipodi:docname="fxpresetarrows.svg"
   inkscape:version="1.0.1 (3bc2e813f5, 2020-09-07)">
  <metadata
     id="metadata8224">
    <rdf:RDF>
      <cc:Work
         rdf:about="">
        <dc:format>image/svg+xml</dc:format>
        <dc:type
           rdf:resource="http://purl.org/dc/dcmitype/StillImage" />
        <dc:title></dc:title>
      </cc:Work>
    </rdf:RDF>
  </metadata>
  <sodipodi:namedview
     pagecolor="#313131"
     bordercolor="#666666"
     borderopacity="1"
     objecttolerance="10"
     gridtolerance="10"
     guidetolerance="10"
     inkscape:pageopacity="0"
     inkscape:pageshadow="2"
     inkscape:window-width="3753"
     inkscape:window-height="2137"
     id="namedview8222"
     showgrid="false"
     inkscape:showpageshadow="false"
     inkscape:zoom="41.382353"
     inkscape:cx="17"
     inkscape:cy="11"
     inkscape:window-x="-8"
     inkscape:window-y="-8"
     inkscape:window-maximized="1"
     inkscape:current-layer="svg8220"
     inkscape:document-rotation="0" />
  <defs
     id="defs8176">
    <linearGradient
       x1="8.953125"
       y1="0.78125"
       x2="8.921875"
       y2="9.8125"
       id="gradient_1">
      <stop
         offset="0"
         stop-color="#787477"
         id="stop8167" />
      <stop
         offset="1"
         stop-color="#696568"
         id="stop8169" />
    </linearGradient>
    <rect
       width="34"
       height="22"
       id="artboard_1" />
    <clipPath
       id="clip_1">
      <use
         xlink:href="#artboard_1"
         clip-rule="evenodd"
         id="use8173" />
    </clipPath>
  </defs>
  <path
     d="M 1.71041,0 H 15.2896 C 16.2372,0 17,0.762843 17,1.71041 V 9.28959 11 H 1.71041 C 0.762843,11 0,10.2372 0,9.28959 V 1.71041 C 0,0.762843 0.762843,0 1.71041,0 Z"
     id="rect31774"
     fill="#959197"
     fill-opacity="0.274194"
     fill-rule="evenodd"
     stroke="none" />
  <path
     d="m 17,10.492295 -15.36848,3e-4 C 0.727657,10.492695 0,9.7649848 0,8.8611148 v -7.22959 C 0,0.72766682 0.727657,2.782122e-5 1.63152,9.32422e-6 L 17,-3.0517578e-4"
     id="rect10608"
     fill="#0a090a"
     fill-rule="evenodd"
     stroke="none" />
  <path
     d="M 1.8464336,0.41387945 H 16.500034 V 9.9966594 H 1.8464336 c -0.790556,0 -1.427,-0.63645 -1.427,-1.42701 v -6.72877 c 0,-0.790556 0.636444,-1.42700001 1.427,-1.42700001 z"
     id="rect7997"
     fill="url(#gradient_1)"
     fill-rule="evenodd"
     stroke="none"
     style="fill:#655959;fill-opacity:1" />
  <path
     d="m 17,2.5 v -1 C 17,1.223858 17.097629,0.98815502 17.292892,0.79289302 17.488155,0.59763112 17.723858,0.50000002 18,0.50000002 h 14 c 0.2761,0 0.5118,0.0976311 0.7071,0.292893 C 32.9024,0.98815502 33,1.223858 33,1.5 v 8 c 0,0.27614 -0.0976,0.51184 -0.2929,0.70711 C 32.5118,10.40237 32.2761,10.5 32,10.5 H 18 c -0.276142,0 -0.511845,-0.09763 -0.707108,-0.29289 C 17.097631,10.01184 17,9.77614 17,9.5 Z"
     id="Rectangle"
     fill="#ffffff"
     fill-opacity="0"
     fill-rule="evenodd"
     stroke="none" />
  <path
     d="m 1.4714661,3.0454481 v -0.818178 c 0,-0.225935 0.091877,-0.418782 0.275632,-0.578542 0.183754,-0.15976 0.405566,-0.23964 0.665434,-0.23964 H 15.587466 c 0.2598,0 0.4816,0.07988 0.6654,0.23964 0.1838,0.15976 0.2757,0.352607 0.2757,0.578542 v 6.545458 c 0,0.22593 -0.0919,0.41877 -0.2757,0.57854 -0.1838,0.15976 -0.4056,0.23964 -0.6654,0.23964 H 2.4125321 c -0.259868,0 -0.48168,-0.07988 -0.665434,-0.23964 -0.1837547,-0.15977 -0.275632,-0.35261 -0.275632,-0.57854 z"
     id="path31121"
     fill="#ffffff"
     fill-opacity="0"
     fill-rule="evenodd"
     stroke="none" />
  <path
     d="m 6.2836,5.1459524 3.81122,2.28673 v -4.57346 z"
     id="path31776"
     fill="#ff0000"
     fill-rule="evenodd"
     stroke="none"
     style="fill:#dbd7d7" />
  <path
     d="m 0.4135476,1.9424994 c 0,-0.04616 -0.0660263,-0.35062 0.20594254,-0.821522 0.26736,-0.46292401 0.79299396,-0.69768966 1.07646396,-0.69786641 l 14.8040399,-0.009232 3e-4,0.505892 c 0,0 -14.3751999,2.34e-4 -14.8207399,2.34e-4 -0.91884896,0 -1.26600614,1.07587401 -1.2660065,1.02249401 z"
     id="rect10605"
     fill="#959197"
     fill-rule="evenodd"
     stroke="none" />
  <path
     d="M 31.8921,0 H 18.66595 C 17.743011,0 17,0.762843 17,1.71041 V 9.28959 11 h 14.8921 c 0.9229,0 1.666,-0.7628 1.666,-1.71041 V 1.71041 C 33.5581,0.762843 32.815,0 31.8921,0 Z"
     id="path10627"
     fill="#959197"
     fill-opacity="0.274194"
     fill-rule="evenodd"
     stroke="none" />
  <path
     d="m 16.5,10.492295 15.3685,3e-4 C 32.7723,10.492695 33.5,9.7649848 33.5,8.8611148 v -7.22959 C 33.5,0.72766682 32.7723,2.782122e-5 31.8685,9.32422e-6 l -15.3685,-3.145e-4"
     id="path10629"
     fill="#0a090a"
     fill-rule="evenodd"
     stroke="none" />
  <path
     d="M 31.3979,0.41387945 H 17 V 9.9966594 h 14.3979 c 0.7768,0 1.4021,-0.63645 1.4021,-1.42701 v -6.72877 c 0,-0.790556 -0.6253,-1.42700001 -1.4021,-1.42700001 z"
     id="path10631"
     fill="url(#gradient_1)"
     fill-rule="evenodd"
     stroke="none"
     style="fill:#655959;fill-opacity:1" />
  <path
     d="m 32.028566,3.0454481 v -0.818178 c 0,-0.225935 -0.0919,-0.418782 -0.2757,-0.578542 -0.1837,-0.15976 -0.4055,-0.23964 -0.6654,-0.23964 H 17.912533 c -0.259829,0 -0.481638,0.07988 -0.665428,0.23964 -0.183791,0.15976 -0.275639,0.352607 -0.275639,0.578542 v 6.545458 c 0,0.22593 0.09185,0.41877 0.275639,0.57854 0.18379,0.15976 0.405599,0.23964 0.665428,0.23964 h 13.174933 c 0.2599,0 0.4817,-0.07988 0.6654,-0.23964 0.1838,-0.15977 0.2757,-0.35261 0.2757,-0.57854 z"
     id="path10633"
     fill="#ffffff"
     fill-opacity="0"
     fill-rule="evenodd"
     stroke="none" />
  <path
     d="m 27.216402,5.1459524 -3.81122,2.28673 v -4.57346 z"
     id="path10635"
     fill="#ff0000"
     fill-rule="evenodd"
     stroke="none"
     style="fill:#dbd7d7" />
  <path
     d="m 32.792856,1.9424994 c 0,-0.04616 0.0648,-0.35062 -0.2022,-0.821522 -0.2625,-0.46292401 -0.7785,-0.69768927 -1.0568,-0.697866 l -14.533846,-0.009232 -2.54e-4,0.505892 c 0,0 14.1128,2.34e-4 14.5502,2.34e-4 0.9021,0 1.2429,1.07587401 1.2429,1.02249401 z"
     id="path10637"
     fill="#959197"
     fill-rule="evenodd"
     stroke="none" />
  <path
     d="M 1.71041,11.000305 H 15.2896 c 0.9476,0 1.7104,0.762843 1.7104,1.71041 v 7.57918 1.71041 H 1.71041 C 0.762843,22.000305 0,21.237505 0,20.289895 v -7.57918 c 0,-0.947567 0.762843,-1.71041 1.71041,-1.71041 z"
     id="path8192"
     fill="#959197"
     fill-opacity="0.274194"
     fill-rule="evenodd"
     stroke="none" />
  <path
     d="m 17,21.4926 -15.36848,3e-4 C 0.727657,21.493 0,20.76529 0,19.86142 V 12.63183 C 0,11.727972 0.727657,11.000333 1.63152,11.000315 L 17,11"
     id="path8194"
     fill="#0a090a"
     fill-rule="evenodd"
     stroke="none" />
  <path
     d="M 1.8464336,11.414185 H 16.500034 v 9.58278 H 1.8464336 c -0.790556,0 -1.427,-0.63645 -1.427,-1.42701 v -6.72877 c 0,-0.790556 0.636444,-1.427 1.427,-1.427 z"
     id="path8196"
     fill="url(#gradient_1)"
     fill-rule="evenodd"
     stroke="none"
     style="fill:#655959;fill-opacity:1" />
  <path
     d="m 17,13.500305 v -1 c 0,-0.276142 0.09763,-0.511845 0.292892,-0.707107 C 17.488155,11.597936 17.723858,11.500305 18,11.500305 h 14 c 0.2761,0 0.5118,0.09763 0.7071,0.292893 C 32.9024,11.98846 33,12.224163 33,12.500305 v 8 c 0,0.27614 -0.0976,0.51184 -0.2929,0.70711 -0.1953,0.19526 -0.431,0.29289 -0.7071,0.29289 H 18 c -0.276142,0 -0.511845,-0.09763 -0.707108,-0.29289 C 17.097631,21.012145 17,20.776445 17,20.500305 Z"
     id="path8198"
     fill="#ffffff"
     fill-opacity="0"
     fill-rule="evenodd"
     stroke="none" />
  <path
     d="m 1.4714661,14.045753 v -0.818178 c 0,-0.225935 0.091877,-0.418782 0.275632,-0.578542 0.183754,-0.15976 0.405566,-0.23964 0.665434,-0.23964 H 15.587466 c 0.2598,0 0.4816,0.07988 0.6654,0.23964 0.1838,0.15976 0.2757,0.352607 0.2757,0.578542 v 6.545458 c 0,0.22593 -0.0919,0.41877 -0.2757,0.57854 -0.1838,0.15976 -0.4056,0.23964 -0.6654,0.23964 H 2.4125321 c -0.259868,0 -0.48168,-0.07988 -0.665434,-0.23964 -0.1837547,-0.15977 -0.275632,-0.35261 -0.275632,-0.57854 z"
     id="path8200"
     fill="#ffffff"
     fill-opacity="0"
     fill-rule="evenodd"
     stroke="none" />
  <path
     d="m 6.2836,16.146258 3.81122,2.28673 v -4.57346 z"
     id="path8202"
     fill="#ff0000"
     fill-rule="evenodd"
     stroke="none"
     style="fill:#dbd7d7" />
  <path
     d="m 0.4135476,12.942805 c 0,-0.04616 -0.0660263,-0.35062 0.20594254,-0.821522 0.26736,-0.462924 0.79299396,-0.69769 1.07646396,-0.697866 l 14.8040399,-0.0092 3e-4,0.505892 c 0,0 -14.3751999,2.34e-4 -14.8207399,2.34e-4 -0.91884896,0 -1.26600614,1.075874 -1.2660065,1.022494 z"
     id="path8204"
     fill="#959197"
     fill-rule="evenodd"
     stroke="none" />
  <path
     d="M 31.8921,11.000305 H 18.66595 C 17.743011,11.000305 17,11.763148 17,12.710715 v 7.57918 1.71041 h 14.8921 c 0.9229,0 1.666,-0.7628 1.666,-1.71041 v -7.57918 c 0,-0.947567 -0.7431,-1.71041 -1.666,-1.71041 z"
     id="path8206"
     fill="#959197"
     fill-opacity="0.274194"
     fill-rule="evenodd"
     stroke="none" />
  <path
     d="m 16.5,21.4926 15.3685,3e-4 C 32.7723,21.493 33.5,20.76529 33.5,19.86142 v -7.22959 c 0,-0.903858 -0.7277,-1.631497 -1.6315,-1.631515 L 16.5,11"
     id="path8208"
     fill="#0a090a"
     fill-rule="evenodd"
     stroke="none" />
  <path
     d="M 31.3979,11.414185 H 17 v 9.58278 h 14.3979 c 0.7768,0 1.4021,-0.63645 1.4021,-1.42701 v -6.72877 c 0,-0.790556 -0.6253,-1.427 -1.4021,-1.427 z"
     id="path8210"
     fill="url(#gradient_1)"
     fill-rule="evenodd"
     stroke="none"
     style="fill:#655959;fill-opacity:1" />
  <path
     d="m 32.028566,14.045753 v -0.818178 c 0,-0.225935 -0.0919,-0.418782 -0.2757,-0.578542 -0.1837,-0.15976 -0.4055,-0.23964 -0.6654,-0.23964 H 17.912533 c -0.259829,0 -0.481638,0.07988 -0.665428,0.23964 -0.183791,0.15976 -0.275639,0.352607 -0.275639,0.578542 v 6.545458 c 0,0.22593 0.09185,0.41877 0.275639,0.57854 0.18379,0.15976 0.405599,0.23964 0.665428,0.23964 h 13.174933 c 0.2599,0 0.4817,-0.07988 0.6654,-0.23964 0.1838,-0.15977 0.2757,-0.35261 0.2757,-0.57854 z"
     id="path8212"
     fill="#ffffff"
     fill-opacity="0"
     fill-rule="evenodd"
     stroke="none" />
  <path
     d="m 27.216402,16.146258 -3.81122,2.28673 v -4.57346 z"
     id="path8214"
     fill="#ff0000"
     fill-rule="evenodd"
     stroke="none"
     style="fill:#dbd7d7" />
  <path
     d="m 32.792856,12.942805 c 0,-0.04616 0.0648,-0.35062 -0.2022,-0.821522 -0.2625,-0.462924 -0.7785,-0.697689 -1.0568,-0.697866 l -14.533846,-0.0092 -2.54e-4,0.505892 c 0,0 14.1128,2.34e-4 14.5502,2.34e-4 0.9021,0 1.2429,1.075874 1.2429,1.022494 z"
     id="path8216"
     fill="#959197"
     fill-rule="evenodd"
     stroke="none" />
</svg>

<?xml version="1.0" encoding="utf-8"?>
<svg width="34px" height="22px" viewBox="0 0 34 22" version="1.1" xmlns:xlink="http://www.w3.org/1999/xlink" xmlns="http://www.w3.org/2000/svg">
  <defs>
    <path d="M0 0L34 0L34 22L0 22L0 0Z" id="path_1" />
    <rect width="34" height="22" id="artboard_1" />
    <clipPath id="clip_1">
      <use xlink:href="#artboard_1" clip-rule="evenodd" />
    </clipPath>
    <clipPath id="mask_1">
      <use xlink:href="#path_1" />
    </clipPath>
  </defs>
  <g id="fxpresetarrows" clip-path="url(#clip_1)">
    <path d="M0 0L34 0L34 22L0 22L0 0Z" id="Background" fill="none" fill-rule="evenodd" stroke="none" />
    <g clip-path="url(#mask_1)">
      <path d="M1.71041 0L15.2896 0C16.2372 0 17 0.762843 17 1.71041L17 9.28959L17 11L1.71041 11C0.762843 11 0 10.2372 0 9.28959L0 1.71041C0 0.762843 0.762843 0 1.71041 0L1.71041 0Z" id="rect31774" fill="#959197" fill-opacity="0.27450982" fill-rule="evenodd" stroke="none" />
      <path d="M17 10.4923L1.63152 10.4926C0.727657 10.4927 0 9.76499 0 8.86111L0 1.63152C0 0.727667 0.727657 2.78212e-05 1.63152 9.32423e-06L17 -0.000305176" id="rect10608" fill="#0A090A" fill-rule="evenodd" stroke="none" />
      <path d="M1.84643 0.413879L16.5 0.413879L16.5 9.99666L1.84643 9.99666C1.05588 9.99666 0.419434 9.36021 0.419434 8.56965L0.419434 1.84088C0.419434 1.05032 1.05588 0.413879 1.84643 0.413879L1.84643 0.413879Z" id="rect7997" fill="#655959" fill-rule="evenodd" stroke="none" />
      <path d="M17 2.5L17 1.5C17 1.22386 17.0976 0.988155 17.2929 0.792893C17.4882 0.597631 17.7239 0.5 18 0.5L32 0.5C32.2761 0.5 32.5118 0.597631 32.7071 0.792893C32.9024 0.988155 33 1.22386 33 1.5L33 9.5C33 9.77614 32.9024 10.0118 32.7071 10.2071C32.5118 10.4024 32.2761 10.5 32 10.5L18 10.5C17.7239 10.5 17.4882 10.4024 17.2929 10.2071C17.0976 10.0118 17 9.77614 17 9.5L17 2.5Z" id="Rectangle" fill="#FFFFFF" fill-opacity="0" fill-rule="evenodd" stroke="none" />
      <path d="M1.47147 3.04545L1.47147 2.22727C1.47147 2.00134 1.56334 1.80849 1.7471 1.64873C1.93085 1.48897 2.15266 1.40909 2.41253 1.40909L15.5875 1.40909C15.8473 1.40909 16.0691 1.48897 16.2529 1.64873C16.4367 1.80849 16.5286 2.00134 16.5286 2.22727L16.5286 8.77273C16.5286 8.99866 16.4367 9.1915 16.2529 9.35127C16.0691 9.51103 15.8473 9.59091 15.5875 9.59091L2.41253 9.59091C2.15266 9.59091 1.93085 9.51103 1.7471 9.35127C1.56334 9.1915 1.47147 8.99866 1.47147 8.77273L1.47147 3.04545Z" id="path31121" fill="#FFFFFF" fill-opacity="0" fill-rule="evenodd" stroke="none" />
      <path d="M6.2836 5.14595L10.0948 7.43268L10.0948 2.85922L6.2836 5.14595Z" id="path31776" fill="#DBD7D7" fill-rule="evenodd" stroke="none" />
      <path d="M0.413548 1.9425C0.413548 1.89634 0.347521 1.59188 0.61949 1.12098C0.88685 0.658053 1.41248 0.423288 1.69595 0.423111L16.5 0.413879L16.5003 0.919771C16.5003 0.919771 2.12509 0.920005 1.67955 0.920005C0.760705 0.920005 0.413548 1.99588 0.413548 1.9425L0.413548 1.9425Z" id="rect10605" fill="#959197" fill-rule="evenodd" stroke="none" />
      <path d="M31.8921 0L18.666 0C17.743 0 17 0.762843 17 1.71041L17 9.28959L17 11L31.8921 11C32.815 11 33.5581 10.2372 33.5581 9.28959L33.5581 1.71041C33.5581 0.762843 32.815 0 31.8921 0L31.8921 0Z" id="path10627" fill="#959197" fill-opacity="0.27450982" fill-rule="evenodd" stroke="none" />
      <path d="M16.5 10.4923L31.8685 10.4926C32.7723 10.4927 33.5 9.76499 33.5 8.86111L33.5 1.63152C33.5 0.727667 32.7723 2.78212e-05 31.8685 9.32423e-06L16.5 -0.000305176" id="path10629" fill="#0A090A" fill-rule="evenodd" stroke="none" />
      <path d="M31.3979 0.413879L17 0.413879L17 9.99666L31.3979 9.99666C32.1747 9.99666 32.8 9.36021 32.8 8.56965L32.8 1.84088C32.8 1.05032 32.1747 0.413879 31.3979 0.413879L31.3979 0.413879Z" id="path10631" fill="#655959" fill-rule="evenodd" stroke="none" />
      <path d="M32.0286 3.04545L32.0286 2.22727C32.0286 2.00134 31.9367 1.80849 31.7529 1.64873C31.5692 1.48897 31.3474 1.40909 31.0875 1.40909L17.9125 1.40909C17.6527 1.40909 17.4309 1.48897 17.2471 1.64873C17.0633 1.80849 16.9715 2.00134 16.9715 2.22727L16.9715 8.77273C16.9715 8.99866 17.0633 9.1915 17.2471 9.35127C17.4309 9.51103 17.6527 9.59091 17.9125 9.59091L31.0875 9.59091C31.3474 9.59091 31.5692 9.51103 31.7529 9.35127C31.9367 9.1915 32.0286 8.99866 32.0286 8.77273L32.0286 3.04545Z" id="path10633" fill="#FFFFFF" fill-opacity="0" fill-rule="evenodd" stroke="none" />
      <path d="M27.2164 5.14595L23.4052 7.43268L23.4052 2.85922L27.2164 5.14595Z" id="path10635" fill="#DBD7D7" fill-rule="evenodd" stroke="none" />
      <path d="M32.7929 1.9425C32.7929 1.89634 32.8577 1.59188 32.5907 1.12098C32.3282 0.658053 31.8122 0.423288 31.5339 0.423111L17 0.413879L16.9998 0.919771C16.9998 0.919771 31.1126 0.920005 31.55 0.920005C32.4521 0.920005 32.7929 1.99588 32.7929 1.9425L32.7929 1.9425Z" id="path10637" fill="#959197" fill-rule="evenodd" stroke="none" />
      <path d="M1.71041 11.0003L15.2896 11.0003C16.2372 11.0003 17 11.7631 17 12.7107L17 20.2899L17 22.0003L1.71041 22.0003C0.762843 22.0003 0 21.2375 0 20.2899L0 12.7107C0 11.7631 0.762843 11.0003 1.71041 11.0003L1.71041 11.0003Z" id="path8192" fill="#959197" fill-opacity="0.27450982" fill-rule="evenodd" stroke="none" />
      <path d="M17 21.4926L1.63152 21.4929C0.727657 21.493 0 20.7653 0 19.8614L0 12.6318C0 11.728 0.727657 11.0003 1.63152 11.0003L17 11" id="path8194" fill="#0A090A" fill-rule="evenodd" stroke="none" />
      <path d="M1.84643 11.4142L16.5 11.4142L16.5 20.997L1.84643 20.997C1.05588 20.997 0.419434 20.3605 0.419434 19.57L0.419434 12.8412C0.419434 12.0506 1.05588 11.4142 1.84643 11.4142L1.84643 11.4142Z" id="path8196" fill="#655959" fill-rule="evenodd" stroke="none" />
      <path d="M17 13.5003L17 12.5003C17 12.2242 17.0976 11.9885 17.2929 11.7932C17.4882 11.5979 17.7239 11.5003 18 11.5003L32 11.5003C32.2761 11.5003 32.5118 11.5979 32.7071 11.7932C32.9024 11.9885 33 12.2242 33 12.5003L33 20.5003C33 20.7764 32.9024 21.0121 32.7071 21.2074C32.5118 21.4027 32.2761 21.5003 32 21.5003L18 21.5003C17.7239 21.5003 17.4882 21.4027 17.2929 21.2074C17.0976 21.0121 17 20.7764 17 20.5003L17 13.5003Z" id="path8198" fill="#FFFFFF" fill-opacity="0" fill-rule="evenodd" stroke="none" />
      <path d="M1.47147 14.0458L1.47147 13.2276C1.47147 13.0016 1.56334 12.8088 1.7471 12.649C1.93085 12.4893 2.15266 12.4094 2.41253 12.4094L15.5875 12.4094C15.8473 12.4094 16.0691 12.4893 16.2529 12.649C16.4367 12.8088 16.5286 13.0016 16.5286 13.2276L16.5286 19.773C16.5286 19.999 16.4367 20.1918 16.2529 20.3516C16.0691 20.5113 15.8473 20.5912 15.5875 20.5912L2.41253 20.5912C2.15266 20.5912 1.93085 20.5113 1.7471 20.3516C1.56334 20.1918 1.47147 19.999 1.47147 19.773L1.47147 14.0458Z" id="path8200" fill="#FFFFFF" fill-opacity="0" fill-rule="evenodd" stroke="none" />
      <path d="M6.2836 16.1463L10.0948 18.433L10.0948 13.8595L6.2836 16.1463Z" id="path8202" fill="#DBD7D7" fill-rule="evenodd" stroke="none" />
      <path d="M0.413548 12.9428C0.413548 12.8966 0.347521 12.5922 0.61949 12.1213C0.88685 11.6584 1.41248 11.4236 1.69595 11.4234L16.5 11.4142L16.5003 11.9201C16.5003 11.9201 2.12509 11.9203 1.67955 11.9203C0.760705 11.9203 0.413548 12.9962 0.413548 12.9428L0.413548 12.9428Z" id="path8204" fill="#959197" fill-rule="evenodd" stroke="none" />
      <path d="M31.8921 11.0003L18.666 11.0003C17.743 11.0003 17 11.7631 17 12.7107L17 20.2899L17 22.0003L31.8921 22.0003C32.815 22.0003 33.5581 21.2375 33.5581 20.2899L33.5581 12.7107C33.5581 11.7631 32.815 11.0003 31.8921 11.0003L31.8921 11.0003Z" id="path8206" fill="#959197" fill-opacity="0.27450982" fill-rule="evenodd" stroke="none" />
      <path d="M16.5 21.4926L31.8685 21.4929C32.7723 21.493 33.5 20.7653 33.5 19.8614L33.5 12.6318C33.5 11.728 32.7723 11.0003 31.8685 11.0003L16.5 11" id="path8208" fill="#0A090A" fill-rule="evenodd" stroke="none" />
      <path d="M31.3979 11.4142L17 11.4142L17 20.997L31.3979 20.997C32.1747 20.997 32.8 20.3605 32.8 19.57L32.8 12.8412C32.8 12.0506 32.1747 11.4142 31.3979 11.4142L31.3979 11.4142Z" id="path8210" fill="#655959" fill-rule="evenodd" stroke="none" />
      <path d="M32.0286 14.0458L32.0286 13.2276C32.0286 13.0016 31.9367 12.8088 31.7529 12.649C31.5692 12.4893 31.3474 12.4094 31.0875 12.4094L17.9125 12.4094C17.6527 12.4094 17.4309 12.4893 17.2471 12.649C17.0633 12.8088 16.9715 13.0016 16.9715 13.2276L16.9715 19.773C16.9715 19.999 17.0633 20.1918 17.2471 20.3516C17.4309 20.5113 17.6527 20.5912 17.9125 20.5912L31.0875 20.5912C31.3474 20.5912 31.5692 20.5113 31.7529 20.3516C31.9367 20.1918 32.0286 19.999 32.0286 19.773L32.0286 14.0458Z" id="path8212" fill="#FFFFFF" fill-opacity="0" fill-rule="evenodd" stroke="none" />
      <path d="M27.2164 16.1463L23.4052 18.433L23.4052 13.8595L27.2164 16.1463Z" id="path8214" fill="#DBD7D7" fill-rule="evenodd" stroke="none" />
      <path d="M32.7929 12.9428C32.7929 12.8966 32.8577 12.5922 32.5907 12.1213C32.3282 11.6584 31.8122 11.4236 31.5339 11.4234L17 11.4142L16.9998 11.9201C16.9998 11.9201 31.1126 11.9203 31.55 11.9203C32.4521 11.9203 32.7929 12.9962 32.7929 12.9428L32.7929 12.9428Z" id="path8216" fill="#959197" fill-rule="evenodd" stroke="none" />
    </g>
  </g>
</svg>
